portal/assets/img/component/main-navigation/anatomy-main-navigation-1.svg

<svg width="225" height="165" viewBox="0 0 225 165" fill="none" xmlns="http://www.w3.org/2000/svg">
<circle cx="97" cy="150" r="12" fill="#344054"/>
<path d="M92.9432 155V153.227L97.0852 149.392C97.4375 149.051 97.733 148.744 97.9716 148.472C98.214 148.199 98.3977 147.932 98.5227 147.67C98.6477 147.405 98.7102 147.119 98.7102 146.812C98.7102 146.472 98.6326 146.178 98.4773 145.932C98.322 145.682 98.1098 145.491 97.8409 145.358C97.572 145.222 97.267 145.153 96.9261 145.153C96.5701 145.153 96.2595 145.225 95.9943 145.369C95.7292 145.513 95.5246 145.72 95.3807 145.989C95.2367 146.258 95.1648 146.578 95.1648 146.949H92.8295C92.8295 146.187 93.0019 145.527 93.3466 144.966C93.6913 144.405 94.1742 143.972 94.7955 143.665C95.4167 143.358 96.1326 143.205 96.9432 143.205C97.7765 143.205 98.5019 143.352 99.1193 143.648C99.7405 143.939 100.223 144.345 100.568 144.864C100.913 145.383 101.085 145.977 101.085 146.648C101.085 147.087 100.998 147.521 100.824 147.949C100.653 148.377 100.348 148.852 99.9091 149.375C99.4697 149.894 98.8504 150.517 98.0511 151.244L96.3523 152.909V152.989H101.239V155H92.9432Z" fill="white"/>
<path d="M97 86L97 139" stroke="#344054" stroke-dasharray="2 2"/>
<circle cx="213" cy="48" r="12" fill="#344054"/>
<path d="M213.244 54.1591C212.396 54.1591 211.64 54.0133 210.977 53.7216C210.318 53.4261 209.797 53.0208 209.415 52.5057C209.036 51.9867 208.841 51.3883 208.83 50.7102H211.307C211.322 50.9943 211.415 51.2443 211.585 51.4602C211.759 51.6723 211.991 51.8371 212.278 51.9545C212.566 52.072 212.89 52.1307 213.25 52.1307C213.625 52.1307 213.956 52.0644 214.244 51.9318C214.532 51.7992 214.758 51.6155 214.92 51.3807C215.083 51.1458 215.165 50.875 215.165 50.5682C215.165 50.2576 215.078 49.983 214.903 49.7443C214.733 49.5019 214.487 49.3125 214.165 49.1761C213.847 49.0398 213.468 48.9716 213.028 48.9716H211.943V47.1648H213.028C213.4 47.1648 213.727 47.1004 214.011 46.9716C214.299 46.8428 214.523 46.6648 214.682 46.4375C214.841 46.2064 214.92 45.9375 214.92 45.6307C214.92 45.339 214.85 45.0833 214.71 44.8636C214.574 44.6402 214.381 44.4659 214.131 44.3409C213.884 44.2159 213.597 44.1534 213.267 44.1534C212.934 44.1534 212.629 44.214 212.352 44.3352C212.076 44.4527 211.854 44.6212 211.688 44.8409C211.521 45.0606 211.432 45.3182 211.42 45.6136H209.062C209.074 44.9432 209.265 44.3523 209.636 43.8409C210.008 43.3295 210.508 42.9299 211.136 42.642C211.769 42.3504 212.483 42.2045 213.278 42.2045C214.081 42.2045 214.784 42.3504 215.386 42.642C215.989 42.9337 216.456 43.3277 216.79 43.8239C217.127 44.3163 217.294 44.8693 217.29 45.483C217.294 46.1345 217.091 46.678 216.682 47.1136C216.277 47.5492 215.748 47.8258 215.097 47.9432V48.0341C215.953 48.1439 216.604 48.4413 217.051 48.9261C217.502 49.4072 217.725 50.0095 217.722 50.733C217.725 51.3958 217.534 51.9848 217.148 52.5C216.765 53.0152 216.237 53.4205 215.562 53.7159C214.888 54.0114 214.116 54.1591 213.244 54.1591Z" fill="white"/>
<path d="M153 48H206" stroke="#344054" stroke-dasharray="2 2"/>
<circle cx="12" cy="16" r="12" fill="#344054"/>
<path d="M14.0057 10.3636V22H11.5455V12.6989H11.4773L8.8125 14.3693V12.1875L11.6932 10.3636H14.0057Z" fill="white"/>
<path d="M24.5 16H97.5V39" stroke="#344054" stroke-dasharray="2 2"/>
<path d="M52.3239 45.7102C52.2784 45.2519 52.0833 44.8958 51.7386 44.642C51.3939 44.3883 50.9261 44.2614 50.3352 44.2614C49.9337 44.2614 49.5947 44.3182 49.3182 44.4318C49.0417 44.5417 48.8295 44.6951 48.6818 44.892C48.5379 45.089 48.4659 45.3125 48.4659 45.5625C48.4583 45.7708 48.5019 45.9527 48.5966 46.108C48.6951 46.2633 48.8295 46.3977 49 46.5114C49.1705 46.6212 49.3674 46.7178 49.5909 46.8011C49.8144 46.8807 50.053 46.9489 50.3068 47.0057L51.3523 47.2557C51.8598 47.3693 52.3258 47.5208 52.75 47.7102C53.1742 47.8996 53.5417 48.1326 53.8523 48.4091C54.1629 48.6856 54.4034 49.0114 54.5739 49.3864C54.7481 49.7614 54.8371 50.1913 54.8409 50.6761C54.8371 51.3883 54.6553 52.0057 54.2955 52.5284C53.9394 53.0473 53.4242 53.4508 52.75 53.7386C52.0795 54.0227 51.2708 54.1648 50.3239 54.1648C49.3845 54.1648 48.5663 54.0208 47.8693 53.733C47.1761 53.4451 46.6345 53.0189 46.2443 52.4545C45.858 51.8864 45.6553 51.1837 45.6364 50.3466H48.017C48.0436 50.7367 48.1553 51.0625 48.3523 51.3239C48.553 51.5814 48.8201 51.7765 49.1534 51.9091C49.4905 52.0379 49.8712 52.1023 50.2955 52.1023C50.7121 52.1023 51.0739 52.0417 51.3807 51.9205C51.6913 51.7992 51.9318 51.6307 52.1023 51.4148C52.2727 51.1989 52.358 50.9508 52.358 50.6705C52.358 50.4091 52.2803 50.1894 52.125 50.0114C51.9735 49.8333 51.75 49.6818 51.4545 49.5568C51.1629 49.4318 50.8049 49.3182 50.3807 49.2159L49.1136 48.8977C48.1326 48.6591 47.358 48.286 46.7898 47.7784C46.2216 47.2708 45.9394 46.5871 45.9432 45.7273C45.9394 45.0227 46.1269 44.4072 46.5057 43.8807C46.8883 43.3542 47.4129 42.9432 48.0795 42.6477C48.7462 42.3523 49.5038 42.2045 50.3523 42.2045C51.2159 42.2045 51.9697 42.3523 52.6136 42.6477C53.2614 42.9432 53.7652 43.3542 54.125 43.8807C54.4848 44.4072 54.6705 45.017 54.6818 45.7102H52.3239ZM60.4276 54.1705C59.5298 54.1705 58.7571 53.9886 58.1094 53.625C57.4654 53.2576 56.9692 52.7386 56.6207 52.0682C56.2723 51.3939 56.098 50.5966 56.098 49.6761C56.098 48.7784 56.2723 47.9905 56.6207 47.3125C56.9692 46.6345 57.4598 46.1061 58.0923 45.7273C58.7287 45.3485 59.4749 45.1591 60.331 45.1591C60.9067 45.1591 61.4427 45.2519 61.9389 45.4375C62.4389 45.6193 62.8745 45.8939 63.2457 46.2614C63.6207 46.6288 63.9124 47.0909 64.1207 47.6477C64.3291 48.2008 64.4332 48.8485 64.4332 49.5909V50.2557H57.0639V48.7557H62.1548C62.1548 48.4072 62.0791 48.0985 61.9276 47.8295C61.776 47.5606 61.5658 47.3504 61.2969 47.1989C61.0317 47.0436 60.723 46.9659 60.3707 46.9659C60.0033 46.9659 59.6776 47.0511 59.3935 47.2216C59.1132 47.3883 58.8935 47.6136 58.7344 47.8977C58.5753 48.178 58.4938 48.4905 58.4901 48.8352V50.2614C58.4901 50.6932 58.5696 51.0663 58.7287 51.3807C58.8916 51.6951 59.1207 51.9375 59.4162 52.108C59.7116 52.2784 60.062 52.3636 60.4673 52.3636C60.7363 52.3636 60.9825 52.3258 61.206 52.25C61.4295 52.1742 61.6207 52.0606 61.7798 51.9091C61.9389 51.7576 62.0601 51.572 62.1435 51.3523L64.3821 51.5C64.2685 52.0379 64.0355 52.5076 63.6832 52.9091C63.3348 53.3068 62.884 53.6174 62.331 53.8409C61.7817 54.0606 61.1473 54.1705 60.4276 54.1705ZM69.956 54.1705C69.062 54.1705 68.2931 53.9811 67.6491 53.6023C67.009 53.2197 66.5166 52.6894 66.1719 52.0114C65.831 51.3333 65.6605 50.553 65.6605 49.6705C65.6605 48.7765 65.8329 47.9924 66.1776 47.3182C66.526 46.6402 67.0204 46.1117 67.6605 45.733C68.3007 45.3504 69.062 45.1591 69.9446 45.1591C70.706 45.1591 71.3726 45.2973 71.9446 45.5739C72.5166 45.8504 72.9692 46.2386 73.3026 46.7386C73.6359 47.2386 73.8196 47.8258 73.8537 48.5H71.5696C71.5052 48.0644 71.3348 47.714 71.0582 47.4489C70.7855 47.1799 70.4276 47.0455 69.9844 47.0455C69.6094 47.0455 69.2817 47.1477 69.0014 47.3523C68.7249 47.553 68.509 47.8466 68.3537 48.233C68.1984 48.6193 68.1207 49.0871 68.1207 49.6364C68.1207 50.1932 68.1965 50.6667 68.348 51.0568C68.5033 51.447 68.7211 51.7443 69.0014 51.9489C69.2817 52.1534 69.6094 52.2557 69.9844 52.2557C70.2609 52.2557 70.509 52.1989 70.7287 52.0852C70.9522 51.9716 71.1359 51.8068 71.2798 51.5909C71.4276 51.3712 71.5241 51.108 71.5696 50.8011H73.8537C73.8158 51.4678 73.634 52.0549 73.3082 52.5625C72.9863 53.0663 72.5412 53.4602 71.973 53.7443C71.4048 54.0284 70.7325 54.1705 69.956 54.1705ZM80.0455 45.2727V47.0909H74.7898V45.2727H80.0455ZM75.983 43.1818H78.4034V51.3182C78.4034 51.5417 78.4375 51.7159 78.5057 51.8409C78.5739 51.9621 78.6686 52.0473 78.7898 52.0966C78.9148 52.1458 79.0587 52.1705 79.2216 52.1705C79.3352 52.1705 79.4489 52.161 79.5625 52.142C79.6761 52.1193 79.7633 52.1023 79.8239 52.0909L80.2045 53.892C80.0833 53.9299 79.9129 53.9735 79.6932 54.0227C79.4735 54.0758 79.2064 54.108 78.892 54.1193C78.3087 54.142 77.7973 54.0644 77.358 53.8864C76.9223 53.7083 76.5833 53.4318 76.3409 53.0568C76.0985 52.6818 75.9792 52.2083 75.983 51.6364V43.1818ZM81.6222 54V45.2727H84.0426V54H81.6222ZM82.8381 44.1477C82.4782 44.1477 82.1695 44.0284 81.9119 43.7898C81.6581 43.5473 81.5312 43.2576 81.5312 42.9205C81.5312 42.5871 81.6581 42.3011 81.9119 42.0625C82.1695 41.8201 82.4782 41.6989 82.8381 41.6989C83.1979 41.6989 83.5047 41.8201 83.7585 42.0625C84.0161 42.3011 84.1449 42.5871 84.1449 42.9205C84.1449 43.2576 84.0161 43.5473 83.7585 43.7898C83.5047 44.0284 83.1979 44.1477 82.8381 44.1477ZM89.9247 54.1705C89.0421 54.1705 88.2789 53.983 87.6349 53.608C86.9948 53.2292 86.5005 52.7027 86.152 52.0284C85.8035 51.3504 85.6293 50.5644 85.6293 49.6705C85.6293 48.7689 85.8035 47.9811 86.152 47.3068C86.5005 46.6288 86.9948 46.1023 87.6349 45.7273C88.2789 45.3485 89.0421 45.1591 89.9247 45.1591C90.8073 45.1591 91.5687 45.3485 92.2088 45.7273C92.8527 46.1023 93.349 46.6288 93.6974 47.3068C94.0459 47.9811 94.2202 48.7689 94.2202 49.6705C94.2202 50.5644 94.0459 51.3504 93.6974 52.0284C93.349 52.7027 92.8527 53.2292 92.2088 53.608C91.5687 53.983 90.8073 54.1705 89.9247 54.1705ZM89.9361 52.2955C90.3376 52.2955 90.6728 52.1818 90.9418 51.9545C91.2107 51.7235 91.4134 51.4091 91.5497 51.0114C91.6899 50.6136 91.7599 50.161 91.7599 49.6534C91.7599 49.1458 91.6899 48.6932 91.5497 48.2955C91.4134 47.8977 91.2107 47.5833 90.9418 47.3523C90.6728 47.1212 90.3376 47.0057 89.9361 47.0057C89.5308 47.0057 89.1899 47.1212 88.9134 47.3523C88.6406 47.5833 88.4342 47.8977 88.294 48.2955C88.1577 48.6932 88.0895 49.1458 88.0895 49.6534C88.0895 50.161 88.1577 50.6136 88.294 51.0114C88.4342 51.4091 88.6406 51.7235 88.9134 51.9545C89.1899 52.1818 89.5308 52.2955 89.9361 52.2955ZM98.2145 48.9545V54H95.794V45.2727H98.1009V46.8125H98.2031C98.3963 46.3049 98.7202 45.9034 99.1747 45.608C99.6293 45.3087 100.18 45.1591 100.828 45.1591C101.434 45.1591 101.963 45.2917 102.413 45.5568C102.864 45.822 103.214 46.2008 103.464 46.6932C103.714 47.1818 103.839 47.7652 103.839 48.4432V54H101.419V48.875C101.423 48.3409 101.286 47.9242 101.01 47.625C100.733 47.322 100.353 47.1705 99.8679 47.1705C99.5421 47.1705 99.2543 47.2405 99.0043 47.3807C98.758 47.5208 98.5649 47.7254 98.4247 47.9943C98.2884 48.2595 98.2183 48.5795 98.2145 48.9545Z" fill="#5925DC"/>
<path fill-rule="evenodd" clip-rule="evenodd" d="M123.136 44.9044C123.178 44.8614 123.229 44.8273 123.285 44.804C123.342 44.7808 123.402 44.7688 123.462 44.7688C123.523 44.7688 123.583 44.7808 123.639 44.804C123.695 44.8273 123.746 44.8614 123.789 44.9044L129 50.1164L134.211 44.9044C134.254 44.8615 134.305 44.8274 134.361 44.8042C134.417 44.781 134.477 44.769 134.538 44.769C134.599 44.769 134.659 44.781 134.715 44.8042C134.771 44.8274 134.822 44.8615 134.865 44.9044C134.908 44.9473 134.942 44.9982 134.965 45.0543C134.988 45.1103 135 45.1704 135 45.2311C135 45.2918 134.988 45.3519 134.965 45.4079C134.942 45.464 134.908 45.5149 134.865 45.5578L129.327 51.0957C129.284 51.1386 129.233 51.1727 129.177 51.196C129.121 51.2193 129.061 51.2312 129 51.2312C128.939 51.2312 128.879 51.2193 128.823 51.196C128.767 51.1727 128.716 51.1386 128.673 51.0957L123.136 45.5578C123.093 45.515 123.059 45.464 123.035 45.408C123.012 45.3519 123 45.2918 123 45.2311C123 45.1704 123.012 45.1103 123.035 45.0542C123.059 44.9982 123.093 44.9472 123.136 44.9044Z" fill="#344054"/>
<path d="M137 86H45V90H137V86Z" fill="#5925DC"/>
</svg>

<svg width="225" height="165" viewBox="0 0 225 165" fill="none" xmlns="http://www.w3.org/2000/svg"><circle cx="97" cy="150" r="12" fill="#344054"/><path d="M92.943 155v-1.773l4.142-3.835c.353-.341.648-.648.887-.92.242-.273.426-.54.55-.802.126-.265.188-.551.188-.858 0-.34-.077-.634-.233-.88a1.533 1.533 0 0 0-.636-.574 2 2 0 0 0-.915-.205c-.356 0-.666.072-.932.216a1.49 1.49 0 0 0-.613.62c-.144.269-.216.589-.216.96h-2.336c0-.762.173-1.422.518-1.983a3.45 3.45 0 0 1 1.449-1.301c.62-.307 1.337-.46 2.147-.46.834 0 1.559.147 2.176.443.621.291 1.104.697 1.449 1.216s.517 1.113.517 1.784c0 .439-.087.873-.261 1.301-.171.428-.476.903-.915 1.426-.44.519-1.059 1.142-1.858 1.869l-1.699 1.665v.08h4.887V155h-8.296Z" fill="#fff"/><path d="M97 86v53" stroke="#344054" stroke-dasharray="2 2"/><circle cx="213" cy="48" r="12" fill="#344054"/><path d="M213.244 54.16c-.848 0-1.604-.147-2.267-.438-.659-.296-1.18-.701-1.562-1.216a3.052 3.052 0 0 1-.585-1.796h2.477c.015.284.108.534.278.75.174.212.406.377.693.495.288.117.612.176.972.176.375 0 .706-.067.994-.2.288-.132.514-.316.676-.55a1.39 1.39 0 0 0 .245-.813c0-.31-.087-.585-.262-.824a1.666 1.666 0 0 0-.738-.568c-.318-.136-.697-.204-1.137-.204h-1.085v-1.807h1.085c.372 0 .699-.065.983-.193a1.59 1.59 0 0 0 .671-.535c.159-.23.238-.5.238-.806a1.396 1.396 0 0 0-.789-1.29 1.887 1.887 0 0 0-.864-.188c-.333 0-.638.061-.915.182a1.596 1.596 0 0 0-.664.506c-.167.22-.256.477-.268.773h-2.358c.012-.67.203-1.262.574-1.773.372-.511.872-.911 1.5-1.199.633-.292 1.347-.438 2.142-.438.803 0 1.506.146 2.108.438.603.292 1.07.686 1.404 1.182.337.492.504 1.045.5 1.659.004.652-.199 1.195-.608 1.63-.405.436-.934.713-1.585.83v.091c.856.11 1.507.407 1.954.892.451.481.674 1.084.671 1.807a2.846 2.846 0 0 1-.574 1.767c-.383.515-.911.92-1.586 1.216-.674.295-1.446.443-2.318.443Z" fill="#fff"/><path d="M153 48h53" stroke="#344054" stroke-dasharray="2 2"/><circle cx="12" cy="16" r="12" fill="#344054"/><path d="M14.006 10.364V22h-2.46v-9.301h-.069l-2.665 1.67v-2.181l2.881-1.824h2.313Z" fill="#fff"/><path d="M24.5 16h73v23" stroke="#344054" stroke-dasharray="2 2"/><path d="M52.324 45.71c-.046-.458-.24-.814-.585-1.068-.345-.254-.813-.38-1.404-.38-.401 0-.74.056-1.017.17-.276.11-.488.263-.636.46-.144.197-.216.42-.216.67a.958.958 0 0 0 .13.546c.1.155.234.29.404.403.17.11.367.207.59.29.224.08.463.148.717.205l1.045.25c.508.113.974.265 1.398.454.424.19.792.423 1.102.7.31.276.551.601.722.976.174.375.263.805.267 1.29-.004.712-.186 1.33-.546 1.852-.356.52-.87.923-1.545 1.21-.67.285-1.48.427-2.426.427-.94 0-1.758-.144-2.455-.432-.693-.288-1.234-.714-1.625-1.278-.386-.569-.589-1.271-.608-2.108h2.381c.027.39.138.715.335.977.201.257.468.453.801.585a3.18 3.18 0 0 0 1.142.193c.417 0 .779-.06 1.086-.181.31-.122.55-.29.721-.506.17-.216.256-.464.256-.745a.967.967 0 0 0-.233-.659c-.151-.178-.375-.33-.67-.454a6.819 6.819 0 0 0-1.074-.341l-1.267-.318c-.981-.239-1.756-.612-2.324-1.12-.568-.507-.85-1.19-.847-2.05-.004-.705.184-1.32.563-1.847.382-.527.907-.938 1.574-1.233.666-.296 1.424-.444 2.272-.444.864 0 1.618.148 2.262.444.647.295 1.151.706 1.511 1.233.36.526.545 1.136.557 1.83h-2.358Zm8.104 8.46c-.898 0-1.67-.181-2.319-.545a3.736 3.736 0 0 1-1.488-1.557c-.349-.674-.523-1.471-.523-2.392 0-.898.174-1.686.523-2.364a3.865 3.865 0 0 1 1.471-1.585c.637-.378 1.383-.568 2.239-.568.576 0 1.112.093 1.608.279.5.181.935.456 1.307.823.375.368.666.83.875 1.387.208.553.312 1.2.312 1.943v.665h-7.37v-1.5h5.092c0-.349-.076-.657-.227-.926a1.629 1.629 0 0 0-.631-.631 1.8 1.8 0 0 0-.926-.233c-.368 0-.693.085-.977.256a1.8 1.8 0 0 0-.66.676c-.159.28-.24.592-.244.937v1.426c0 .432.08.805.239 1.12.163.314.392.556.687.727.296.17.646.256 1.051.256.27 0 .516-.038.739-.114.223-.076.415-.19.574-.34.159-.152.28-.338.364-.558l2.238.148a3.056 3.056 0 0 1-.699 1.41c-.348.397-.799.707-1.352.93-.55.22-1.184.33-1.903.33Zm9.528 0c-.894 0-1.663-.189-2.307-.568a3.841 3.841 0 0 1-1.477-1.59c-.341-.679-.511-1.459-.511-2.342 0-.894.172-1.678.517-2.352a3.84 3.84 0 0 1 1.483-1.585c.64-.383 1.401-.574 2.284-.574.761 0 1.428.138 2 .415a3.343 3.343 0 0 1 1.358 1.165c.333.5.517 1.087.55 1.761H71.57c-.065-.436-.235-.786-.512-1.051-.273-.27-.63-.404-1.074-.404-.375 0-.702.103-.983.307-.276.201-.492.495-.647.881-.156.386-.233.854-.233 1.403 0 .557.076 1.03.227 1.42.155.391.373.688.653.893.28.204.608.307.983.307.277 0 .525-.057.745-.17.223-.114.407-.28.55-.495a1.87 1.87 0 0 0 .29-.79h2.285c-.038.667-.22 1.254-.546 1.761a3.294 3.294 0 0 1-1.335 1.182c-.568.284-1.24.426-2.017.426Zm10.09-8.897v1.818H74.79v-1.818h5.255Zm-4.063-2.091h2.42v8.136c0 .224.034.398.103.523a.564.564 0 0 0 .284.256c.125.049.269.073.432.073.113 0 .227-.009.34-.028l.262-.051.38 1.801a6.772 6.772 0 0 1-.51.13 4.09 4.09 0 0 1-.802.097c-.583.023-1.095-.055-1.534-.233a2.141 2.141 0 0 1-1.017-.83c-.242-.374-.362-.848-.358-1.42v-8.454ZM81.623 54v-8.727h2.42V54h-2.42Zm1.215-9.852c-.36 0-.668-.12-.926-.358a1.16 1.16 0 0 1-.38-.87c0-.333.126-.619.38-.858.257-.242.566-.363.926-.363.36 0 .667.121.92.364.258.238.387.524.387.857 0 .338-.129.627-.386.87a1.299 1.299 0 0 1-.92.358Zm7.087 10.022c-.883 0-1.646-.187-2.29-.562a3.85 3.85 0 0 1-1.483-1.58c-.349-.678-.523-1.464-.523-2.358 0-.901.174-1.689.523-2.363a3.804 3.804 0 0 1 1.483-1.58c.644-.378 1.407-.568 2.29-.568.882 0 1.644.19 2.284.568a3.79 3.79 0 0 1 1.488 1.58c.349.674.523 1.462.523 2.363 0 .894-.174 1.68-.523 2.358a3.838 3.838 0 0 1-1.488 1.58c-.64.375-1.402.563-2.284.563Zm.011-1.875c.402 0 .737-.113 1.006-.34.269-.231.471-.546.608-.944.14-.397.21-.85.21-1.358 0-.507-.07-.96-.21-1.358-.137-.397-.34-.712-.608-.943-.27-.23-.604-.346-1.006-.346-.405 0-.746.115-1.023.346-.272.231-.479.546-.619.944a4.18 4.18 0 0 0-.204 1.357c0 .508.068.96.204 1.358.14.398.347.712.62.944.276.227.617.34 1.022.34Zm8.278-3.34V54h-2.42v-8.727h2.307v1.54h.102a2.43 2.43 0 0 1 .972-1.205c.454-.3 1.005-.449 1.653-.449.606 0 1.135.133 1.585.398.451.265.801.644 1.051 1.136.25.489.375 1.072.375 1.75V54h-2.42v-5.125c.004-.534-.133-.95-.409-1.25-.277-.303-.657-.455-1.142-.455-.326 0-.614.07-.864.21-.246.14-.44.345-.58.614-.136.266-.206.586-.21.96Z" fill="#5925DC"/><path fill-rule="evenodd" clip-rule="evenodd" d="M123.136 44.904a.45.45 0 0 1 .326-.135.462.462 0 0 1 .327.135L129 50.116l5.211-5.212a.464.464 0 0 1 .754.15.466.466 0 0 1-.1.504l-5.538 5.538a.466.466 0 0 1-.504.1.466.466 0 0 1-.15-.1l-5.537-5.538a.467.467 0 0 1 0-.653Z" fill="#344054"/><path d="M137 86H45v4h92v-4Z" fill="#5925DC"/></svg>
